X:186
T:McDermott's (hornpipe) 
B:CRE2.299 (CornphÃÂÃÂÃÂÃÂ­opa Mhic Dhiarmada)
F:file ID: cre.2/186mcderm
S:Paddy O'Brien (Dublin)
N:Also called "Flowers of Antrim"
L:1/8
M:C
R:hornpipe % A-B-A
Q:150
K:D
fe|:dcdA FABA|GFGE CEA,E|CDEF GA (3Bcd|(3efe (3dcB Agfe|
dcdA FABA|GFGE CEA,E|CDEF GA (3Bcd|1 eddc dgfe:|2 eddc d3||
|:A|(3FGA dA (3FGA dA|FAdA (3GAG FG|E=c~c2 E=c~c2|E=ccB ABAG|
(3FGA dA (3FGA dA|FAdA (3GAG FG|Eeed cA (3Bcd|1 eddc d3:|\
[2 eddc dgfe||

%%%

